svg/usb_c_port.svg

<svg xmlns="http://www.w3.org/2000/svg" viewBox="0 0 24 24"><path d="M6 12h12c.55 0 1 .45 1 1s-.45 1-1 1H6c-.55 0-1-.45-1-1s.45-1 1-1m0-2c-1.66 0-3 1.34-3 3s1.34 3 3 3h12c1.66 0 3-1.34 3-3s-1.34-3-3-3zm0-2h12c2.76 0 5 2.24 5 5s-2.24 5-5 5H6c-2.76 0-5-2.24-5-5s2.24-5 5-5"/></svg>

<svg xmlns="http://www.w3.org/2000/svg" id="mdi-usb-c-port" viewBox="0 0 24 24"><path d="M6 12H18C18.55 12 19 12.45 19 13C19 13.55 18.55 14 18 14H6C5.45 14 5 13.55 5 13C5 12.45 5.45 12 6 12M6 10C4.34 10 3 11.34 3 13C3 14.66 4.34 16 6 16H18C19.66 16 21 14.66 21 13C21 11.34 19.66 10 18 10H6M6 8H18C20.76 8 23 10.24 23 13C23 15.76 20.76 18 18 18H6C3.24 18 1 15.76 1 13C1 10.24 3.24 8 6 8Z" /></svg>
